!!!OTL: Spinnr&auml;dellied (Band 1), S. 164
!!!id: P0830
**kern
*clefG2
*k[f#c#g#]
*A:
{4e
=1
4c#
4e
4a
=2
4c#
4e
4a
=3
4.cc#
8b
4cc#
=4
2b}
=5
{4b
=6
4e
4g#
4b
=7
4e
4g#
4b
=8
2dd
4ee
=9
2cc#}
=10
{4e
=11
4dd
4cc#
4b
=12
4g#
4f#
4e
=13
2a}
=14
{4a
=15
4.cc#
8b
4a
=16
4.b
8b
4b
=17
4dd
4dd
4cc#
=18
2a}
==
*-
!!!minrhy: 8
!!!meters: 3/4 ]  ZZ[4
!!!cut: Spinnr&auml;dellied (Band 1), S. 164
!!!reg: Lothringen
!!!trd: PINCK, Louis: Verklingende Weisen, Bd 1, Metz 1928
!!!rhy1: X_  X_X_X_  X_X_X_  X_.XX_  X__
!!!rhy2: X_  X_X_X_  X_X_X_  X__X_  X__
!!!key: P0830  08  A 3/4 ]  ZZ[4
!!!mod: HEPTATONIK IONISCH]  AMBITUS[10b
!!!kad: 2311
!!!akz: -3-332_-5-543_4-71_3241_
!!!fot: 'a__b__c__d__
!!!for: 'a__b__aw_c__
!!!fok: 'Va_Sa_~a_M__
!! PHRAS[AUFTAKTIG]
!!!fkt: Werbung, Liebe, Standesunterschied
!! LOTH VKL
!! PR[25] 2K[10] 2G[18] 3K[4] 3G[0] 4A[1] 4Ü[0] 5A[3] 6K[0] 6G[1]
!! 7K[0] 7G[0] 8A[0] MEHR[0] SI[39] ABS[67] SR[28] SP[10]
!! ST[18] 2k[4] 2g[13] 3k[9] 3g[3] 4d[3] 4ü[0] 5d[1] 6k[1] 6g[0]
!! 7k[0] 7g[0] 8d[0] mehr[0] si[36] dm[+3] sr[18] sp[18]
!! 1F[3] 2F[49] 3F[48] 4F[0] LF[0] 2P[0] 3P[0] 4P[0] TRI[0] DF[3] AB[71]
!! TF[0] U3K[0] U3[0] U4[0] U4Ü[0] U5[0] U6K[0] U6[0] U7K[0] U7[1]
!! N1[10] N2K[0] N2[16] N3K[0] N3[22] N4[13] N4Ü[0] N5[16] N6K[0] N6[16]
!!!n7k: 0] N7[1] O1[3] O2K[0] O2[0] O3K[0] O3[0] HÖ[0
!!!RNB: symbol: &auml;      = a umlaut  (UTF-8: Å„)
